X:1
T:Non piu d'Amore
T:Non piu d'Amore
T:Piero Benedetti
T:Source : Musische di P.Benedetti---Libro secondo--Venetia---R.Amadino---1613. Editor : André Vierendeels (03/06/15).
T:Notes : Original clefs : C1, F4 Editorial accidentals above the staff 3/4 tact notated as 3/2 in original print Figures in BC are notated in original print Composer called "Pietro" in original edition
C:Piero Benedetti
%%score 1 2
L:1/8
Q:1/4=70
M:3/4
K:C
V:1 treble nm="Soprano" snm="S"
V:2 bass nm="BC" snm="BC"
V:1
 B2 G2 A2 | B4 B2 | d2 d3 ^c | d4 d2 | A2 A2 G2 | AG AB c2- | cd d4 | c6 | e2 d2 c2 | B4 B2 | %10
w: Non piu d'A-|mo- re,|non piu d'Ar-|do- re,|non piu di|fiam- * * * *|* me cap-|to,|non de so-|spi- ri,|
w: Non- de gli|stra- li,|ben ch'im- mor-|ta- li,|spie- ghe- ro|dol- * * * *|* c'il- can-|to,|non de ca-|pel- li|
w: Non de bei|ra- i|che tan- to'a-|ma- i,|piu sen- ti-|re- * * * *|* t'il can-|to,|Don- n'e Don-|zel- le|
w: O Don- n'al-|tie- re,|e lu- sin-|ghie- re,|non gio- i-|re- * * * *|* te'al can-|to,|vo- stra bel-|lez- za,|
w: Gi- te- ne'a'i|Ven- ti,|do- gli'e tor-|men- ti,|fug- gi- te'il|suo- * * * *|* no'el can-|to,|trop- po m'an-|no- ia,|
 d2 d3 ^c | d4 d2 | A2 ^F2 G2 | ED EF G2 | A2 A4 | G6 | A2 ^F2 G2 | ED EF G2 | A2 A4 | %19
w: non di mar-|ti- ri,|non piu di|do- * * * *|gl'è pian-|to,|non piu di|do- * * * *|gl'è pian-|
w: che fur si|bel- li,|per cui fu|dol- * * * *|c'il pian-|to,|per cui fu|dol- * * * *|c'il pian-|
w: d'A- mor- ru-|bel- le,|per cui mi|strus- * * * *|s'in pian-|to,|per cui mi|strus- * * * *|s'il pian-|
w: vo- stra fie-|rez- za,|sol è can-|gion _ _ _ _|di- piaz-|zo,|sol è can-|gion _ _ _ _|di- piaz-|
w: d'A- mor la|gio- ia,|ca- gion di|do- * * * *|glia'e pian-|to,|ca- gion di|do- * * * *|glia'e pian-|
 !fermata!G6 |] %20
w: te.|
w: to.|
w: to.|
w: zo.-|
w: to.|
V:2
 G,2 E,2 D,2 | G,2 G,4 | G,,2 A,,2 A,,2 |"^#""^#" D,4 D,2 |"^#""^#" D,2 D,2 E,2 | F,6 | %6
"^4         3" E,2 G,2 G,2 | C,6 | C,2 B,,2 A,,2 | G,,6 | G,2 F,2 E,2 |"^#""^#" D,4 D,2 | %12
"^#" D,4 B,,2 |"^#" C,2 D,2 E,2 |"^4""^#" ^C,2 D,2 D,2 | G,,6 |"^#" D,4 B,,2 | C,2 D,2 E,2 | %18
"^4""^#" ^C,2 D,2 D,2 | .!fermata!G,,6 |] %20

